X: 28979
T: Narky Fiddler, The
R: polka
M: 2/4
K: Ddorian
D>A de|dc dA/E/|D>A de|cA EE|
D>A de|dc dA/E/|D>A de|1 ed c2:|2 cA d2||
K:D
|:af/a/ ge/g/|fd/f/ ef/g/|af/a/ ge/g/|fd ef/g/|
af/a/ ge/g/|fd/f/ ef|1 d>e fd|gf ef/g/:|
[2 d>A DA|dc d2||

